icons/flat/folder.svg

<?xml version="1.0" encoding="UTF-8" standalone="no"?>
<svg
   xmlns:dc="http://purl.org/dc/elements/1.1/"
   xmlns:cc="http://creativecommons.org/ns#"
   xmlns:rdf="http://www.w3.org/1999/02/22-rdf-syntax-ns#"
   xmlns:svg="http://www.w3.org/2000/svg"
   xmlns="http://www.w3.org/2000/svg"
   xmlns:sodipodi="http://sodipodi.sourceforge.net/DTD/sodipodi-0.dtd"
   xmlns:inkscape="http://www.inkscape.org/namespaces/inkscape"
   width="12"
   height="12"
   version="1.1"
   viewBox="0 0 12 12"
   id="svg23"
   sodipodi:docname="folder.svg"
   inkscape:version="1.0beta1 (fe3e306, 2019-09-17)">
  <sodipodi:namedview
     pagecolor="#ffffff"
     bordercolor="#666666"
     borderopacity="1"
     objecttolerance="10"
     gridtolerance="10"
     guidetolerance="10"
     inkscape:pageopacity="0"
     inkscape:pageshadow="2"
     inkscape:window-width="1920"
     inkscape:window-height="1017"
     id="namedview25"
     showgrid="true"
     showguides="false"
     inkscape:zoom="45.254834"
     inkscape:cx="7.919613"
     inkscape:cy="6.3368202"
     inkscape:window-x="-8"
     inkscape:window-y="-8"
     inkscape:window-maximized="1"
     inkscape:current-layer="svg23"
     inkscape:snap-bbox="true"
     inkscape:bbox-paths="true"
     inkscape:bbox-nodes="true"
     inkscape:snap-bbox-edge-midpoints="true"
     inkscape:snap-bbox-midpoints="true"
     inkscape:snap-object-midpoints="true"
     inkscape:snap-center="true"
     inkscape:document-rotation="0"
     viewbox-width="131.47">
    <inkscape:grid
       type="xygrid"
       id="grid832"
       dotted="false"
       snapvisiblegridlinesonly="true"
       empspacing="2"
       color="#3f3fff"
       opacity="0.10588235"
       empcolor="#3f3fff"
       empopacity="0.3372549"
       spacingx="0.5"
       spacingy="0.5" />
  </sodipodi:namedview>
  <defs
     id="defs7">
    <inkscape:path-effect
       effect="fillet_chamfer"
       id="path-effect878"
       is_visible="true"
       satellites_param="F,0,1,1,0,1,0,1 @ F,0,0,1,0,0,0,1 @ F,0,0,1,0,0,0,1 @ F,0,0,1,0,0,0,1 @ F,0,0,1,0,0,0,1 @ F,0,1,1,0,1,0,1 @ F,0,0,1,0,0,0,1 @ F,0,0,1,0,0,0,1"
       unit="px"
       method="auto"
       mode="F"
       radius="1"
       chamfer_steps="1"
       flexible="false"
       use_knot_distance="false"
       apply_no_radius="true"
       apply_with_radius="true"
       only_selected="true"
       hide_knots="false" />
    <inkscape:path-effect
       effect="fillet_chamfer"
       id="path-effect853"
       is_visible="true"
       satellites_param="F,0,0,1,0,0.61803399,0,1 @ F,0,0,1,0,1.618034,0,1 @ F,0,0,1,0,0.61803394,0,1 @ F,0,0,1,0,1.6180341,0,1"
       unit="px"
       method="auto"
       mode="F"
       radius="1"
       chamfer_steps="1"
       flexible="false"
       use_knot_distance="false"
       apply_no_radius="true"
       apply_with_radius="true"
       only_selected="false"
       hide_knots="false" />
    <inkscape:path-effect
       effect="bspline"
       id="path-effect1255"
       is_visible="true"
       weight="33.333333"
       steps="2"
       helper_size="0"
       apply_no_weight="true"
       apply_with_weight="true"
       only_selected="false" />
    <radialGradient
       id="radialGradient3016"
       cx="-13166.831"
       cy="773.61652"
       r="94.455002"
       gradientTransform="matrix(0.5378275,-2.4793726e-7,-1.817799e-6,0.53782475,7149.2197,-348.33764)"
       gradientUnits="userSpaceOnUse"
       fx="-13166.831"
       fy="773.61652">
      <stop
         stop-color="#23ff23"
         offset="0"
         id="stop2" />
      <stop
         stop-color="#00bf00"
         offset="1"
         id="stop4" />
    </radialGradient>
    <inkscape:path-effect
       hide_knots="false"
       only_selected="false"
       apply_with_radius="true"
       apply_no_radius="true"
       use_knot_distance="false"
       flexible="false"
       chamfer_steps="1"
       radius="1"
       mode="F"
       method="auto"
       unit="px"
       satellites_param="F,0,0,1,0,0.61803399,0,1 @ F,0,0,1,0,1.618034,0,1 @ F,0,0,1,0,0.61803394,0,1 @ F,0,0,1,0,1.6180341,0,1"
       is_visible="true"
       id="path-effect853-0"
       effect="fillet_chamfer" />
  </defs>
  <metadata
     id="metadata9">
    <rdf:RDF>
      <cc:Work
         rdf:about="">
        <dc:format>image/svg+xml</dc:format>
        <dc:type
           rdf:resource="http://purl.org/dc/dcmitype/StillImage" />
        <dc:title></dc:title>
      </cc:Work>
    </rdf:RDF>
  </metadata>
  <path
     style="fill:#000000;stroke-width:2;stroke-linecap:round;stroke-linejoin:bevel"
     d="M 0,2 V 9.3515625 L 2.3066406,4.7363281 C 2.532825,4.2846414 2.9948465,3.9995643 3.5,4 H 10 V 3 A 1,1 45 0 0 9,2 H 6 L 5,1 H 1 A 1,1 135 0 0 0,2 Z"
     id="rect835" />
  <path
     style="color:#000000;font-style:normal;font-variant:normal;font-weight:normal;font-stretch:normal;font-size:medium;line-height:normal;font-family:sans-serif;font-variant-ligatures:normal;font-variant-position:normal;font-variant-caps:normal;font-variant-numeric:normal;font-variant-alternates:normal;font-variant-east-asian:normal;font-feature-settings:normal;font-variation-settings:normal;text-indent:0;text-align:start;text-decoration:none;text-decoration-line:none;text-decoration-style:solid;text-decoration-color:#000000;letter-spacing:normal;word-spacing:normal;text-transform:none;writing-mode:lr-tb;direction:ltr;text-orientation:mixed;dominant-baseline:auto;baseline-shift:baseline;text-anchor:start;white-space:normal;shape-padding:0;shape-margin:0;inline-size:0;clip-rule:nonzero;display:inline;overflow:visible;visibility:visible;opacity:1;isolation:auto;mix-blend-mode:normal;color-interpolation:sRGB;color-interpolation-filters:linearRGB;solid-color:#000000;solid-opacity:1;vector-effect:none;fill:#000000;fill-opacity:1;fill-rule:nonzero;stroke:none;stroke-width:2;stroke-linecap:butt;stroke-linejoin:miter;stroke-miterlimit:4;stroke-dasharray:none;stroke-dashoffset:0;stroke-opacity:1;color-rendering:auto;image-rendering:auto;shape-rendering:auto;text-rendering:auto;enable-background:accumulate;stop-color:#000000;stop-opacity:1"
     d="m 3.1064193,5.5527864 -2,4 A 1,1 58.282526 0 0 2.0008465,11 H 8.9991536 A 1,1 148.28253 0 0 9.8935807,10.447214 L 11.893581,6.4472136 A 0.99999999,0.99999999 58.282527 0 0 10.999154,5 H 4.0008465 A 1,1 148.28253 0 0 3.1064193,5.5527864 Z"
     id="path851"
     inkscape:connector-curvature="0"
     sodipodi:nodetypes="ccccc" />
</svg>

<svg xmlns="http://www.w3.org/2000/svg" width="12" height="12" xmlns:v="https://vecta.io/nano"><path d="M0 2v7.352l2.307-4.615C2.533 4.285 2.995 4 3.5 4H10V3a1 1 45 0 0-1-1H6L5 1H1a1 1 135 0 0-1 1zm3.106 3.553l-2 4A1 1 58.283 0 0 2.001 11h7a1 1 148.283 0 0 .894-.553l2-4A1 1 58.283 0 0 10.999 5H4a1 1 148.283 0 0-.894.553z"/></svg>
